!!!COM: Anon.
!!!OTL: K. Honen
!!!OTC: Japanese Popular Music: A Collection of The Popular Music of Japan Rendered in to the Staff notation.
!!!CNT: Nippon, Japanese
!!!TXO: Nippon, Japan
!!!OCY: Nippon, Japan
!!!ODT: <1892///
!!!PSR: S. Miki & Co.
!!!PSP: Osaka, Nippon
!!!PDT: 1892///
!!!PPE: Y Nagai & K. Kobatake
!!!PED: Revised Second Edition
!!!PPG: page 32-33
!! Allegro
**kern	**silbe
*ICstr	*Lnippon
*ICvox	*
*Ikoto	*
*Ivox	*
*clefG2	*
*k[f#]	*
*M2/4	*
=1-	=1-
8a	.
8a	.
8ee	.
8dd	.
=2	=2
4ee	.
8.ee	.
16ee	.
=3	=3
8ee	.
16bb	.
16bb	.
8bb	.
8ff#	.
=4	=4
4aa	.
4r	.
!! repeat from the beginning
=5	=5
8a	.
8a	.
8ee	.
8dd	.
=6	=6
4ee	.
8.ee	.
16ee	.
=7	=7
8ee	.
16bb	.
16bb	.
8bb	.
8ff#	.
=8	=8
4aa	.
4r	.
!! continuing
=9	=9
4b	.
8b	.
8dd	.
=10	=10
4ee	.
4r	.
=11	=11
8ff#	.
8ee	.
8dd	.
8b	.
=12	=12
4a	.
4r	.
=13	=13
8r	.
8b	.
8b	.
8b	.
=14	=14
4ee	.
8ee	.
8ee	.
=15	=15
4ff#	.
8ee	.
8dd	.
8b	.
=16	=16
4a	.
4r	.
=17	=17
4b	.
8b	.
8dd	.
=18	=18
8r	.
8ee	.
8ee	.
8ee	.
=19	=19
8ff#	.
8ee	.
8dd	.
8b	.
=20	=20
4a	.
4r	.
=21	=21
4dd	.
4r	.
=22	=22
8ee	.
8dd	.
8b	.
8a	.
=23	=23
4dd	.
4ee	.
=24	=24
4ee	.
4r	.
=25	=25
4ff#	.
4ee	.
=26	=26
4dd	.
4b	.
=27	=27
4a	.
8r	.
8g	.
=28	=28
4a	.
4b	.
=29	=29
8r	.
8dd	.
8b	.
8dd	.
=30	=30
4a	.
4f#	.
=31	=31
8r	.
8ff#	.
[4ff#	.
=32	=32
4ff#]	.
8dd	.
8ee	.
=33	=33
8a	.
8ee	.
4ee	.
=34	=34
4r	.
8b	.
8dd	.
=35	=35
8b	.
8a	.
8b	.
8dd	.
=36	=36
8a	.
8b	.
8r	.
8dd	.
=37	=37
8b	.
8dd	.
[4a	.
=38	=38
8a]	.
8f#	.
8e	.
8d	.
=39	=39
8e	.
8f#	.
4a	.
=40	=40
8e	.
8a	.
[4a	.
=41	=41
4a]	.
4r	.
!! repeated section begins
=42!|:	=42!|:
8b	.
8b	.
8b	.
8dd	.
=43	=43
8r	.
8ee	.
8ee	.
8ee	.
=44	=44
8ff3	.
8ee	.
8dd	.
8b	.
=45	=45
4a	.
4r	.
=46	=46
8b	.
8b	.
8b	.
8dd	.
=47	=47
8ee	.
8ee	.
8ee	.
8ee	.
=48	=48
8ff#	.
8ee	.
8dd	.
8b	.
=49	=49
4a	.
4r	.
!! repeat
=50	=50
8b	.
8b	.
8b	.
8dd	.
=51	=51
8r	.
8ee	.
8ee	.
8ee	.
=52	=52
8ff3	.
8ee	.
8dd	.
8b	.
=53	=53
4a	.
4r	.
=54	=54
8b	.
8b	.
8b	.
8dd	.
=55	=55
8ee	.
8ee	.
8ee	.
8ee	.
=56	=56
8ff#	.
8ee	.
8dd	.
8b	.
=57	=57
4a	.
4r	.
!! continuing
=58	=58
4dd	.
4r	.
=59	=59
8ee	.
8dd	.
8b	.
8a	.
=60	=60
4dd	.
4ee	.
=61	=61
4ee	.
4r	.
=62	=62
4ff#	.
4ee	.
=63	=63
4dd	.
4b	.
=64	=64
4a	.
8r	.
8g	.
=65	=65
4a	.
4b	.
=66	=66
8r	.
8dd	.
8b	.
8dd	.
=67	=67
4a	.
4f#	.
=68	=68
8r	.
8ff#	.
4ff#	.
=69	=69
8r	.
8ff#	.
8dd	.
8ee	.
=70	=70
8a	.
8ee	.
[4ee	.
=71	=71
4ee]	.
4r	.
=72	=72
8b	.
8dd	.
8b	.
8a	.
=73	=73
8b	.
8dd	.
8b	.
8a	.
=74	=74
8b	.
8dd	.
8ee	.
8dd	.
=75	=75
4b	.
8dd	.
8b	.
=76	=76
4.a	.
8f#	.
=77	=77
8e	.
8d	.
8e	.
8f#	.
=78	=78
4a	.
8e	.
8a	.
=79	=79
4a	.
4r	.
==	==
*-	*-
!!!ENC: David Huron
!!!RDT: 2000/1/30
!!!EEV: Release 1.0
!!!ELF: 10/28
!!!YER: 2000/2/1
!!!YEM: Copyright David Huron, 2000
!!!YEN: United States of America
